svg/floppy.svg

<svg xmlns="http://www.w3.org/2000/svg" fill="currentColor">
    <symbol id="floppy">
        <g fill="currentColor">
            <title>Layer 1</title>
            <path id="svg_1" d="m0,0l3,0l0,3l-3,0l0,-3zm0,3l3,0l0,3l-3,0l0,-3zm0,3l3,0l0,3l-3,0l0,-3zm0,3l3,0l0,3l-3,0l0,-3zm0,3l3,0l0,3l-3,0l0,-3zm0,3l3,0l0,3l-3,0l0,-3zm0,3l3,0l0,3l-3,0l0,-3zm0,3l3,0l0,3l-3,0l0,-3zm0,3l3,0l0,3l-3,0l0,-3zm0,3l3,0l0,3l-3,0l0,-3zm0,3l3,0l0,3l-3,0l0,-3zm0,3l3,0l0,3l-3,0l0,-3zm0,3l3,0l0,3l-3,0l0,-3zm33,-36l0,3l-3,0l0,-3l3,0z"/>
            <path id="svg_2" d="m30.003,0l0,3l-3,0l0,-3l3,0zm-3.003,0l0,3l-3,0l0,-3l3,0zm-3,0l0,3l-3,0l0,-3l3,0zm-3.001,0l0,3l-3,0l0,-3l3,0z"/>
            <path id="svg_3" d="m18,0l0,3l-3,0l0,-3l3,0zm-3.001,0l0,3l-3,0l0,-3l3,0z"/>
            <path id="svg_4" d="m12,0l0,3l-3,0l0,-3l3,0zm-3.004,0l0,3l-3,0l0,-3l3,0z"/>
            <path id="svg_5" d="m6,0l0,3l-3,0l0,-3l3,0zm30,3l0,3l-3,0l0,-3l3,0zm-27.004,3l0,3l-3,0l0,-3l3,0zm0,-3l0,3l-3,0l0,-3l3,0zm0,6l0,3l-3,0l0,-3l3,0zm21.007,-3l0,3l-3,0l0,-3l3,0zm0,-3l0,3l-3,0l0,-3l3,0zm0,6l0,3l-3,0l0,-3l3,0zm-6.003,-3l0,3l-3,0l0,-3l3,0zm0,-3l0,3l-3,0l0,-3l3,0zm0,6l0,3l-3,0l0,-3l3,0zm6.003,3l0,3l-3,0l0,-3l3,0zm-3.003,0l0,3l-3,0l0,-3l3,0zm-3,0l0,3l-3,0l0,-3l3,0zm-3.001,0l0,3l-3,0l0,-3l3,0z"/>
            <path id="svg_6" d="m18,12l0,3l-3,0l0,-3l3,0zm-3.001,0l0,3l-3,0l0,-3l3,0z"/>
            <path id="svg_7" d="m12,12l0,3l-3,0l0,-3l3,0zm-3.004,0l0,3l-3,0l0,-3l3,0zm24.004,9l0,3l-3,0l0,-3l3,0z"/>
            <path id="svg_8" d="m30.003,21l0,3l-3,0l0,-3l3,0zm-3.003,0l0,3l-3,0l0,-3l3,0zm-3,0l0,3l-3,0l0,-3l3,0zm-3.001,0l0,3l-3,0l0,-3l3,0z"/>
            <path id="svg_9" d="m18,21l0,3l-3,0l0,-3l3,0zm-3.001,0l0,3l-3,0l0,-3l3,0z"/>
            <path id="svg_10" d="m12,21l0,3l-3,0l0,-3l3,0zm-3.004,0l0,3l-3,0l0,-3l3,0zm24.004,3l0,3l-3,0l0,-3l3,0zm-24.004,0l0,3l-3,0l0,-3l3,0zm24.004,3l0,3l-3,0l0,-3l3,0zm-24.004,0l0,3l-3,0l0,-3l3,0zm24.004,3l0,3l-3,0l0,-3l3,0zm-24.004,0l0,3l-3,0l0,-3l3,0zm0,3l0,3l-3,0l0,-3l3,0zm24.004,0l0,3l-3,0l0,-3l3,0zm3,3l0,3l-3,0l0,-3l3,0zm-3,0l0,3l-3,0l0,-3l3,0z"/>
            <path id="svg_11" d="m30.003,36l0,3l-3,0l0,-3l3,0zm-3.003,0l0,3l-3,0l0,-3l3,0zm-3,0l0,3l-3,0l0,-3l3,0zm-3.001,0l0,3l-3,0l0,-3l3,0z"/>
            <path id="svg_12" d="m18,36l0,3l-3,0l0,-3l3,0zm-3.001,0l0,3l-3,0l0,-3l3,0z"/>
            <path id="svg_13" d="m12,36l0,3l-3,0l0,-3l3,0zm-3.004,0l0,3l-3,0l0,-3l3,0z"/>
            <path id="svg_14" d="m6,36l0,3l-3,0l0,-3l3,0zm33,3l-3,0l0,-3l3,0l0,3zm0,-3l-3,0l0,-3l3,0l0,3zm0,-3l-3,0l0,-3l3,0l0,3zm0,-3l-3,0l0,-3l3,0l0,3zm0,-3l-3,0l0,-3l3,0l0,3zm0,-3l-3,0l0,-3l3,0l0,3zm0,-3l-3,0l0,-3l3,0l0,3zm0,-3l-3,0l0,-3l3,0l0,3zm0,-3l-3,0l0,-3l3,0l0,3zm0,-3l-3,0l0,-3l3,0l0,3zm0,-3l-3,0l0,-3l3,0l0,3z"/>
        </g>
    </symbol>
</svg>

<svg xmlns="http://www.w3.org/2000/svg">

<symbol id="floppy">

<path fill="#000" d="M0 0h3v3H0zM0 3h3v3H0zM0 6h3v3H0zM0 9h3v3H0zM0 12h3v3H0zM0 15h3v3H0zM0 18h3v3H0zM0 21h3v3H0zM0 24h3v3H0zM0 27h3v3H0zM0 30h3v3H0zM0 33h3v3H0zM0 36h3v3H0zM33 0v3h-3V0z"/><path fill="#000" d="M30.003 0v3h-3V0zM27 0v3h-3V0zM24 0v3h-3V0zM20.999 0v3h-3V0z"/><path fill="#000" d="M18 0v3h-3V0zM14.999 0v3h-3V0z"/><path fill="#000" d="M12 0v3H9V0zM8.996 0v3h-3V0z"/><path fill="#000" d="M6 0v3H3V0zM36 3v3h-3V3zM8.996 6v3h-3V6zM8.996 3v3h-3V3zM8.996 9v3h-3V9zM30.003 6v3h-3V6zM30.003 3v3h-3V3zM30.003 9v3h-3V9zM24 6v3h-3V6zM24 3v3h-3V3zM24 9v3h-3V9zM30.003 12v3h-3v-3zM27 12v3h-3v-3zM24 12v3h-3v-3zM20.999 12v3h-3v-3z"/><path fill="#000" d="M18 12v3h-3v-3zM14.999 12v3h-3v-3z"/><path fill="#000" d="M12 12v3H9v-3zM8.996 12v3h-3v-3zM33 21v3h-3v-3z"/><path fill="#000" d="M30.003 21v3h-3v-3zM27 21v3h-3v-3zM24 21v3h-3v-3zM20.999 21v3h-3v-3z"/><path fill="#000" d="M18 21v3h-3v-3zM14.999 21v3h-3v-3z"/><path fill="#000" d="M12 21v3H9v-3zM8.996 21v3h-3v-3zM33 24v3h-3v-3zM8.996 24v3h-3v-3zM33 27v3h-3v-3zM8.996 27v3h-3v-3zM33 30v3h-3v-3zM8.996 30v3h-3v-3zM8.996 33v3h-3v-3zM33 33v3h-3v-3zM36 36v3h-3v-3zM33 36v3h-3v-3z"/><path fill="#000" d="M30.003 36v3h-3v-3zM27 36v3h-3v-3zM24 36v3h-3v-3zM20.999 36v3h-3v-3z"/><path fill="#000" d="M18 36v3h-3v-3zM14.999 36v3h-3v-3z"/><path fill="#000" d="M12 36v3H9v-3zM8.996 36v3h-3v-3z"/><path fill="#000" d="M6 36v3H3v-3zM39 39h-3v-3h3zM39 36h-3v-3h3zM39 33h-3v-3h3zM39 30h-3v-3h3zM39 27h-3v-3h3zM39 24h-3v-3h3zM39 21h-3v-3h3zM39 18h-3v-3h3zM39 15h-3v-3h3zM39 12h-3V9h3zM39 9h-3V6h3z"/>

</symbol>

</svg>
